X: 6
T:Bonnie Kate
% Nottingham Music Database
S:Mick Peat
M:4/4
L:1/4
K:G
f|"G"g3/2a/2 "D"gf|"G"gd2e|"C"dc "D"BA|"G"BG2A|"G"B" Em"G2A/2B/2|\
"Am"c" D"A2B/2c/2|"G"Bd "C"cB| [1"D"Ad ef:|
 [2"D"A2 A2||"G"BG2A/2B/2|"D"cA "G7"dB|"C"ec2d/2e/2|"D"fzde/2f/2|
"G"g3/2a/2 "Em"ge|"Bm"df "Em"gB|"Am"ce "D"d/2e/2d/2c/2|"G"BG G2:|


